X: 33229
T: Puer Mon Cuer
R: polka
M: 2/4
K: Gmajor
d>d c>d|e>c d2|d>d B>G|A2 G2:|
(3BBB B>A|B>c B>A|B>A G>F|G>G G>A|
B>B B>A|B>c B>A|B>A G>F|G>G G2||

